src/images/Webpack.svg

<svg width="97" height="97" viewBox="0 0 97 97" fill="none" xmlns="http://www.w3.org/2000/svg">
<mask id="mask0_24_989" style="mask-type:alpha" maskUnits="userSpaceOnUse" x="4" y="0" width="89" height="97">
<g clip-path="url(#clip0_24_989)">
<path d="M89.5402 74.7629L50.2287 97V79.6808L74.6997 66.206L89.5402 74.7551V74.7629ZM92.232 72.3237V25.8209L77.8494 34.1331V64.0273L92.232 72.3237ZM7.45964 74.7629L46.7712 97V79.6808L22.3001 66.206L7.45964 74.7629ZM4.76782 72.3237V25.8209L19.1505 34.1331V64.0273L4.76782 72.3237ZM6.45711 22.8054L46.7712 0V16.735L20.9345 30.944L20.7292 31.0545L6.45711 22.8054ZM90.5427 22.8054L50.2287 0V16.735L76.0654 30.944L76.2706 31.0624L90.5427 22.8133V22.8054Z" fill="#8ED6FB"/>
<path d="M46.7712 75.7812L22.6001 62.4406V36.1145L46.7712 50.0709V75.7812ZM50.2287 75.7812L74.3997 62.4564V36.1145L50.2287 50.0709V75.7812ZM24.2341 33.1543L48.4999 19.7347L72.7657 33.0753L48.4999 47.0791L24.2341 33.0753V33.1543Z" fill="#1C78C0"/>
</g>
</mask>
<g mask="url(#mask0_24_989)">
<rect x="4.76782" width="87.4642" height="97" fill="url(#paint0_linear_24_989)"/>
</g>
<defs>
<linearGradient id="paint0_linear_24_989" x1="22.1097" y1="83.3881" x2="77.1755" y2="0.746701" gradientUnits="userSpaceOnUse">
<stop offset="0.00833321" stop-color="#5C03BC"/>
<stop offset="0.53125" stop-color="#E536AB"/>
<stop offset="0.898958" stop-color="#F4E5F0"/>
</linearGradient>
<clipPath id="clip0_24_989">
<rect width="87.4642" height="97" fill="white" transform="translate(4.76782)"/>
</clipPath>
</defs>
</svg>

<svg xmlns="http://www.w3.org/2000/svg" width="97" height="97" fill="none"><mask id="b" width="89" height="97" x="4" y="0" maskUnits="userSpaceOnUse" style="mask-type:alpha"><g clip-path="url(#a)"><path fill="#8ED6FB" d="M89.54 74.763 50.23 97V79.68l24.47-13.474 14.841 8.55v.007Zm2.692-2.44V25.822l-14.383 8.312v29.894l14.383 8.297ZM7.46 74.764 46.77 97V79.68l-24.47-13.474L7.46 74.763Zm-2.692-2.44V25.822l14.383 8.312v29.894L4.768 72.324Zm1.69-49.518L46.77 0v16.735L20.934 30.944l-.205.11-14.272-8.249Zm84.085 0L50.229 0v16.735l25.836 14.209.206.118 14.272-8.249v-.008Z"/><path fill="#1C78C0" d="m46.771 75.781-24.17-13.34V36.114l24.17 13.957v25.71Zm3.458 0 24.17-13.325V36.114L50.23 50.072v25.71ZM24.234 33.154 48.5 19.734l24.266 13.341L48.5 47.08 24.234 33.075v.08Z"/></g></mask><g mask="url(#b)"><path fill="url(#c)" d="M4.768 0h87.464v97H4.768z"/></g><defs><linearGradient id="c" x1="22.11" x2="77.175" y1="83.388" y2=".747" gradientUnits="userSpaceOnUse"><stop offset=".008" stop-color="#5C03BC"/><stop offset=".531" stop-color="#E536AB"/><stop offset=".899" stop-color="#F4E5F0"/></linearGradient><clipPath id="a"><path fill="#fff" d="M4.768 0h87.464v97H4.768z"/></clipPath></defs></svg>
